X: 30704
T: Orest And Laura's
R: reel
M: 4/4
K: Bminor
K:Bb
D2 B,C DB, G,B,|F,B, B,F, B,F, B,2|D2 FD GF DC|B,F, G,5F,2|
G, B,C DF G,B,|CD F2 G2 B4|G2 FD CB,|G,F, E,4 D2|
D2 B,C DB, G,B,|F,B, B,F, B,F, B,2|D2 FD GF DC|B,F, G,5F,2|
G, B,C DF G,B,|CD F2 G2 FG|FD CB, [B,G,][B,E,] [B,4D,4]|G,F, D,E, =E,F,|
B,,2 G,F, D,F, B,F,|D2 CB, CD FD|FG FD CB, G,8|F,G,|
CG, B,2 F,G, DG,|B,C2< B,2G, F,D,|B,,2 GF DC B,F,|G,2>E,2 D,E, =E,F,|
B,,2 G,F, D,F, B,F,|D2 CB, CD FD|FG FD CB, G,8|F,G,|
CG, B,2 F,G, DG,|B,C B,4 FG|FD CB, [B,G,][B,E,] [B,1
D,1
]|

